X:14
T:Lowlands or My $1.50 A Day
M:C|
L:1/8
Q:1/4=3D100
K:Bb
B4 F4|B2cd B2A2|F6 F2|A3B c2A2|
B2G2 E2G2|FFFF E2D2|B,6||
B,2|\
B,B,B,B, D2E2|F4 G2F2|EDC2 B,4|
B4 F4|B2cd B2A2|F6 F2|A3B c2A2|
B2G2 E2G2|FFFF E2D2|B,6||
